img/elem/ElemTiltedCrystal24.svg

<svg height="24" width="24" xmlns="http://www.w3.org/2000/svg" xmlns:xlink="http://www.w3.org/1999/xlink">
  <linearGradient id="a" gradientTransform="matrix(1 0 0 1.0222222 -.022561 -.266667)" gradientUnits="userSpaceOnUse" x1="15.913273" x2="4.892136" y1="1.041945" y2="23">
    <stop offset="0" stop-color="#dbf6ff"/>
    <stop offset="1" stop-color="#7ddcfd"/>
  </linearGradient>
  <g stroke-linecap="round">
    <path d="m12.123741.5000005 7.636547-.00000043-10.9458074 23.00000093h-7.591497z" fill="url(#a)" fill-rule="evenodd" stroke="#00b4ff"/>
    <path d="m-.06370962 10.501252h7.15297032l6.3250963 3.994291h9.024757" fill="none" stroke="#f00" stroke-width="3"/>
    <path d="m18.49032 10.53871 4 3.948789-4.031855 4.012501" fill="none" stroke="#f00" stroke-linejoin="round" stroke-width="3"/>
    <path d="m10.579829 7.3310492 3.509678-3.3504025m-1.509677 4.3504025 3.509677-3.3504025" fill="none" stroke="#00b4ff" stroke-width=".6"/>
    <path d="m4.4524098 20.216124 3.509678-3.350402m-1.509677 4.350402 3.5096766-3.350402" fill="none" stroke="#00b4ff" stroke-width=".7"/>
  </g>
  <path d="m7.0722937 12.276492 1.3173096-2.7313989 5.0094837 3.1586489-1.283523 2.755441z" fill="#da9999" fill-rule="evenodd"/>
</svg>

<?xml version="1.0" encoding="UTF-8" standalone="no"?>
<!-- Created with Inkscape (http://www.inkscape.org/) -->
<svg
   xmlns:dc="http://purl.org/dc/elements/1.1/"
   xmlns:cc="http://creativecommons.org/ns#"
   xmlns:rdf="http://www.w3.org/1999/02/22-rdf-syntax-ns#"
   xmlns:svg="http://www.w3.org/2000/svg"
   xmlns="http://www.w3.org/2000/svg"
   xmlns:xlink="http://www.w3.org/1999/xlink"
   xmlns:sodipodi="http://sodipodi.sourceforge.net/DTD/sodipodi-0.dtd"
   xmlns:inkscape="http://www.inkscape.org/namespaces/inkscape"
   width="24"
   height="24"
   id="svg11119"
   sodipodi:version="0.32"
   inkscape:version="0.46"
   version="1.0"
   sodipodi:docbase="D:\Projects\Resonator\elements\svg"
   sodipodi:docname="ElemTiltedCrystal24.svg"
   inkscape:output_extension="org.inkscape.output.svg.inkscape"
   inkscape:export-filename="D:\Projects\rezonator2\elems\ElemTiltedCrystal24.png"
   inkscape:export-xdpi="90"
   inkscape:export-ydpi="90">
  <defs
     id="defs11121">
    <linearGradient
       id="linearGradient3261">
      <stop
         style="stop-color:#dbf6ff;stop-opacity:1;"
         offset="0"
         id="stop3263" />
      <stop
         style="stop-color:#7ddcfd;stop-opacity:1;"
         offset="1"
         id="stop3265" />
    </linearGradient>
    <inkscape:perspective
       sodipodi:type="inkscape:persp3d"
       inkscape:vp_x="0 : 12 : 1"
       inkscape:vp_y="0 : 1000 : 0"
       inkscape:vp_z="24 : 12 : 1"
       inkscape:persp3d-origin="12 : 8 : 1"
       id="perspective8401" />
    <marker
       inkscape:stockid="Arrow1Lend"
       orient="auto"
       refY="0.0"
       refX="0.0"
       id="Arrow1Lend"
       style="overflow:visible;">
      <path
         id="path7033"
         d="M 0.0,0.0 L 5.0,-5.0 L -12.5,0.0 L 5.0,5.0 L 0.0,0.0 z "
         style="fill-rule:evenodd;stroke:#000000;stroke-width:1.0pt;marker-start:none;"
         transform="scale(0.8) rotate(180) translate(12.5,0)" />
    </marker>
    <linearGradient
       inkscape:collect="always"
       xlink:href="#linearGradient3261"
       id="linearGradient9130"
       x1="15.913273"
       y1="1.0419451"
       x2="4.8921361"
       y2="23"
       gradientUnits="userSpaceOnUse"
       gradientTransform="matrix(1,0,0,1.0222222,-2.2560967e-2,-0.2666666)" />
  </defs>
  <sodipodi:namedview
     id="base"
     pagecolor="#ffffff"
     bordercolor="#666666"
     borderopacity="1.0"
     inkscape:pageopacity="0.0"
     inkscape:pageshadow="2"
     inkscape:zoom="32"
     inkscape:cx="14.590461"
     inkscape:cy="9.9689854"
     inkscape:current-layer="layer1"
     showgrid="true"
     inkscape:grid-bbox="true"
     inkscape:document-units="px"
     width="24px"
     height="24px"
     inkscape:window-width="1920"
     inkscape:window-height="1144"
     inkscape:window-x="-4"
     inkscape:window-y="-4">
    <inkscape:grid
       type="xygrid"
       id="grid8403" />
  </sodipodi:namedview>
  <metadata
     id="metadata11124">
    <rdf:RDF>
      <cc:Work
         rdf:about="">
        <dc:format>image/svg+xml</dc:format>
        <dc:type
           rdf:resource="http://purl.org/dc/dcmitype/StillImage" />
      </cc:Work>
    </rdf:RDF>
  </metadata>
  <g
     id="layer1"
     inkscape:label="Layer 1"
     inkscape:groupmode="layer">
    <path
       sodipodi:nodetypes="ccccc"
       id="path19877"
       d="M 12.123741,0.5000005 L 19.760288,0.50000007 L 8.8144806,23.500001 L 1.2229836,23.500001 L 12.123741,0.5000005 z"
       style="fill:url(#linearGradient9130);fill-opacity:1;fill-rule:evenodd;stroke:#00b4ff;stroke-width:1;stroke-linecap:round;stroke-linejoin:miter;stroke-miterlimit:4;stroke-dasharray:none;stroke-dashoffset:0;stroke-opacity:1" />
    <path
       style="fill:none;fill-rule:evenodd;stroke:#ff0000;stroke-width:3;stroke-linecap:round;stroke-linejoin:miter;marker-end:none;stroke-miterlimit:4;stroke-dasharray:none;stroke-opacity:1"
       d="M -0.063709621,10.501252 L 7.0892607,10.501252 L 13.414357,14.495543 L 22.439114,14.495543"
       id="path13067"
       sodipodi:nodetypes="cccc" />
    <path
       style="fill:none;fill-rule:evenodd;stroke:#ff0000;stroke-width:3;stroke-linecap:round;stroke-linejoin:round;stroke-miterlimit:4;stroke-dasharray:none;stroke-opacity:1"
       d="M 18.49032,10.53871 L 22.49032,14.487499 L 18.458465,18.5"
       id="path14040"
       sodipodi:nodetypes="ccc" />
    <path
       id="path3259"
       style="fill:none;fill-rule:evenodd;stroke:#00b4ff;stroke-width:0.6;stroke-linecap:round;stroke-linejoin:miter;stroke-opacity:1;stroke-miterlimit:4;stroke-dasharray:none"
       d="M 10.579829,7.3310492 L 14.089507,3.9806467 L 14.089507,3.9806467 M 12.57983,8.3310492 L 16.089507,4.9806467"
       sodipodi:nodetypes="ccccc" />
    <path
       sodipodi:nodetypes="ccccc"
       d="M 4.4524098,20.216124 L 7.9620878,16.865722 L 7.9620878,16.865722 M 6.4524108,21.216124 L 9.9620874,17.865722"
       style="fill:none;fill-rule:evenodd;stroke:#00b4ff;stroke-width:0.69999999;stroke-linecap:round;stroke-linejoin:miter;stroke-miterlimit:4;stroke-dasharray:none;stroke-opacity:1"
       id="path9133" />
    <path
       style="fill:#da9999;fill-rule:evenodd;stroke:none;stroke-width:1px;stroke-linecap:butt;stroke-linejoin:miter;stroke-opacity:1;fill-opacity:1;opacity:1"
       d="M 7.0722937,12.276492 L 8.3896033,9.5450931 L 13.399087,12.703742 L 12.115564,15.459183 L 7.0722937,12.276492 z"
       id="path9850"
       sodipodi:nodetypes="ccccc" />
  </g>
</svg>
